X: 124
T:Dan Collins Father's Jig
R:jig
Z:added by Alf 
M:6/8
L:1/8
Q:3/8=120
K:D
fe|d2A BAB|def a3| aba f2e|dBB BAB|
d2A BAB|def ~a3| aba f2d|edd d2:|
e|faa faa|afe ~f3| aba f2e|dBB BAB|
d2A BAB|def ~a3| aba f2d|edd d2:|
